X:1
T: The Highway to Limerick
C:
R:Reel
Q: 232
K:Am
M:4/4
L:1/8
|:EA AB cB Ac|BA GB dB GA|EA AB cB cd|((3e^fg) dB BA A2|
EA AB cB Ac|BA GB dB GA|EA AB cB cd|((3e^fg) dB BA A2|
ea ag e^f ge|dB GB AG ED|ea ag e^f ga|ba gb a2 a2|
ea ag e^f ge|dB gd BG G2|EA AB cB cd|((3e^fg) dB BA A2:|
